X: 1
T: Bothy, The
M: 3/4
L: 1/8
R: waltz
K: Emin
|: E3 B cB | E3 B cB | AG F2 D2 | B,2 BAGF | 
E3 B cB | E3 B cB | AG FD B,F |1 E4 D2 :|2 E6 ||
| efgf e2 | efgf e2 | d2 B2 G2 | A2 F2 D2 | 
efgf e2 | efgf e2 | d2 B2 d2 | A6 |
efgf e2 | efgf e2 | d2 B2 G2 | A2 F2 D2 | 
EFGF E2 | EFGF E2 | EF GF ED | E6 ||
